images/icons/paw.svg

<svg width="52" height="52" viewBox="0 0 52 52" fill="none" xmlns="http://www.w3.org/2000/svg">
<path d="M30.6961 26.4252C39.5403 25.0913 52.9229 30.4269 48.3452 40.031C45.9224 44.833 41.9063 43.7659 37.3512 44.0327C31.9924 44.2994 30.9105 48.5679 26.3515 50.4354C23.134 51.5025 19.9184 51.7693 17.5124 49.635C10.0258 43.4991 20.7725 30.9605 26.9428 27.4923C28.0157 26.9588 29.3559 26.692 30.6961 26.4252Z" fill="#D7D7D7"/>
<path d="M45.166 24.0244C47.5783 23.4908 49.7253 21.8902 50.5341 19.7561C51.6109 17.6219 51.0822 14.6874 49.2102 13.3536C46.0013 10.9527 42.7795 13.8872 41.7001 17.0884C41.1611 18.4222 40.8894 20.0228 41.4213 21.6235C42.2223 22.6905 45.166 24.0244 45.166 24.0244Z" fill="#D7D7D7"/>
<path d="M37.1721 6.41546C36.6408 4.54808 35.8423 2.4139 34.2375 1.34683C32.6334 0.0129821 29.6873 -0.253787 27.8081 1.34683C26.1976 2.68067 25.9251 4.54808 25.9206 6.41546C25.9161 8.28284 25.9122 9.88346 26.4435 11.7508C26.7069 13.6182 27.506 15.4856 29.1101 16.8194C35.7958 21.6213 38.2346 10.1502 37.1721 6.41546Z" fill="#D7D7D7"/>
<path d="M23.2107 18.4215C24.0234 14.6867 23.2294 10.6852 20.8255 7.7507C19.4893 6.41685 17.6173 5.08301 15.4741 5.08301C6.36519 5.34978 12.2213 20.8224 17.8451 21.6227C20.2548 22.1562 23.2107 18.4215 23.2107 18.4215Z" fill="#D7D7D7"/>
<path d="M11.9352 28.8252C12.4794 25.3572 9.27571 20.8221 6.06425 19.4882C4.72608 18.9547 3.11938 18.688 2.04653 19.2215C0.168709 20.2886 -0.104382 22.4227 0.158343 24.5569C0.684437 28.5584 3.88626 33.8938 8.98071 32.0264C10.8572 31.4928 11.6641 30.159 11.9352 28.8252Z" fill="#D7D7D7"/>
</svg>

<svg width="52" height="52" fill="none" xmlns="http://www.w3.org/2000/svg"><path d="M30.696 26.425c8.844-1.334 22.227 4.002 17.65 13.606-2.424 4.802-6.44 3.735-10.995 4.002-5.359.266-6.44 4.535-11 6.402-3.217 1.067-6.433 1.334-8.839-.8-7.486-6.136 3.26-18.674 9.43-22.143 1.074-.533 2.414-.8 3.754-1.067zm14.47-2.401c2.412-.533 4.56-2.134 5.368-4.268 1.077-2.134.548-5.069-1.324-6.402-3.209-2.401-6.43.533-7.51 3.734-.539 1.334-.81 2.935-.279 4.535.801 1.067 3.745 2.401 3.745 2.401zM37.172 6.415c-.531-1.867-1.33-4.001-2.934-5.068-1.605-1.334-4.55-1.6-6.43 0-1.61 1.334-1.883 3.201-1.887 5.068-.005 1.868-.009 3.468.523 5.336.263 1.867 1.062 3.735 2.666 5.068 6.686 4.802 9.125-6.669 8.062-10.404zM23.21 18.422c.813-3.735.02-7.737-2.384-10.671-1.337-1.334-3.209-2.668-5.352-2.668-9.109.267-3.253 15.74 2.371 16.54 2.41.533 5.366-3.201 5.366-3.201zM11.935 28.825c.544-3.468-2.66-8.003-5.87-9.337-1.339-.533-2.946-.8-4.018-.267C.169 20.29-.104 22.423.158 24.557c.526 4.001 3.728 9.337 8.823 7.47 1.876-.534 2.683-1.868 2.954-3.202z" fill="#D7D7D7"/></svg>
